X:192
T:The Proposal
N:"Slow with expression" "collected by F. O'Neill"
B:O'Neill's 192
Z:Transcribed by henrik.norbeck@mailbox.swipnet.se
M:C
L:1/8
K:F
fe|dedc AG FGAB|cdcB cd c2 fe|dedc AG FGA.G|Ad dedc d2 fe|
dedc AG FGAB|cdcB cd c2 fg|abaf g Hz/ e/ fgfd e Hz/ c/|Ad dedc d2"fine"||
de|fgfe d z/ e/ fagf|efed c z/ d/ efge|fgfe d z/ e/ fagf|efed ce d2 de|
gfede .fagf|fedcd .egfe|.fagf egfe|Tdcde f2"D.C."||
